assets/Part alternation mark/Flat/part_alternation_mark_flat.svg

<svg width="32" height="32" viewBox="0 0 32 32" fill="none" xmlns="http://www.w3.org/2000/svg">
<path d="M28.5009 28.2204C27.8934 28.2204 27.3215 27.8479 27.0971 27.2454L20.0452 8.34852L15.8934 13.9916C15.5665 14.436 15.0421 14.7023 14.4909 14.7041C14.489 14.7041 14.4871 14.7041 14.4859 14.7041C13.9365 14.7041 13.4127 14.4416 13.084 14.0004L8.86148 8.33414L4.88085 17.846C4.56148 18.6098 3.68335 18.9691 2.92023 18.6498C2.1571 18.3304 1.7971 17.4523 2.11648 16.6891L6.9421 5.15726C7.18398 4.57976 7.72023 4.17351 8.3421 4.09664C8.96335 4.02039 9.58273 4.28476 9.95648 4.78726L14.479 10.8566L18.9996 4.71226C19.3802 4.19476 20.0121 3.92851 20.649 4.01664C21.2859 4.10539 21.8209 4.53476 22.0452 5.13664L29.904 26.1966C30.1934 26.9716 29.7996 27.8348 29.024 28.1241C28.8521 28.1898 28.6752 28.2204 28.5009 28.2204Z" fill="#FFB02E"/>
</svg>

<svg xmlns="http://www.w3.org/2000/svg" width="32" height="32" fill="none"><path fill="#FFB02E" d="M28.5 28.22c-.607 0-1.178-.372-1.403-.975L20.045 8.35l-4.152 5.643c-.327.444-.85.71-1.402.712h-.005c-.55 0-1.073-.262-1.402-.704L8.861 8.334l-3.98 9.512a1.498 1.498 0 1 1-2.765-1.157L6.942 5.157a1.754 1.754 0 0 1 1.4-1.06 1.75 1.75 0 0 1 1.614.69l4.523 6.07 4.52-6.145a1.748 1.748 0 0 1 3.046.425l7.859 21.06a1.498 1.498 0 0 1-1.403 2.023Z"/></svg>
